X:1
T:Valses Brillantes
T:Symphony No. 2
T:Carl Maria von Weber J. 51 
%%score { ( 1 4 ) | ( 2 3 ) }
L:1/8
Q:1/4=132
M:3/4
K:Eb
V:1 bass nm="Piano" snm="Pno."
V:4 bass 
V:2 bass 
V:3 bass 
V:1
S"^Menuetto: Allegro"!pp! [G,E]6 | [A,D]6 | C2 D2 E2 | D6 |[K:treble]!f! [gc']4 [gc']2 | %5
 [ac']4 [=ac']2 | [gb]4 [^f=a]2 | [dg]2 !>!G2 z2 |!pp! [G,E]6 | [A,D]6 | C2 D2 E2 | D6 | %12
[K:treble]!f! [gc']4 [gc']2 | [ac']4 [=ac']2 | [gb]4 [^f=a]2 | [dg]2 !>!G2 z2 |!mf! [Adfb]6 | %17
 [GBeg]6 | [FBdf]6- | [FBdf]4 [G=Bdf]2 | [Gce]2!f! [cc']4 | [cc']4 [cc']2 | [cc']4 [=B=b]2 | %23
 [cc']2 !>!c2 z2 |!mf! [Adfb]6 | [GBeg]6 | [FBdf]6- | [FBdf]4 [G=Bdf]2 | [Gce]2!f! [cc']4 | %29
 [cc']4 [cc']2 | [cc']4 [=B=b]2 | [cc']2 !>!c2 z2!fine! |: %32
[K:C][Q:1/4=172]"^Trio"!p![Q:1/4=132] [Gg]2 [ee']2 [Bb]2 | [cc']6 | [ff']2 [^c^c']2 [dd']2 | %35
 [^A^a]2 [Bb]2 [Gg]2- | [Gg]2 [cc']2 [ee']2 | [gg']6- | [gg']2 [^f^f']2 [=f=f']2 | %39
 [dd']2 [ee']2 [cc']2 | z6 | z6 :| _A2 G2 F2 | _E2 D2 C2 | B,2 C2 D2 | _E4 D2 | %46
 [Gg]2 [cc']2 [ee']2 | [gg']6- | [gg']2 [^f^f']2 [=f=f']2 | [dd']2 [ee']2 [cc']2 | z6 | z6 | %52
 _A2 G2 F2 | _E2 D2 C2 | B,2 C2 D2 | _E4 D2 | [Gg]2 [cc']2 [ee']2 | [gg']6- | %58
 [gg']2 [^f^f']2 [=f=f']2 | [dd']2 [ee']2 [cc']2 | z6 | z6!D.S.! |] %62
V:2
 C,6 | F,6 | E,2 D,2 C,2 | D,2 [G,,G,]2 z2 | z2 !>![E,G,C]2 [=E,G,C]2 | z2 !>![F,A,C]2 [^F,=A,D]2 | %6
 [G,B,D]2 !>![B,,,B,,]2 [D,,D,]2 | [G,,G,]2 !>![G,,,G,,]2 z2 | C,6 | F,6 | E,2 D,2 C,2 | %11
 D,2 [G,,G,]2 z2 | z2 !>![E,G,C]2 [=E,G,C]2 | z2 !>![F,A,C]2 [^F,=A,D]2 | %14
 [G,B,D]2 !>![B,,,B,,]2 [D,,D,]2 | [G,,G,]2 !>![G,,,G,,]2 z2 | .[B,,,B,,]2 .[C,,C,]2 .[D,,D,]2 | %17
 .[E,,E,]2 .[F,,F,]2 .[G,,G,]2 | .[A,,A,]2 .[B,,B,]2 .[C,C]2 | .[D,D]2 .[E,E]2 .[F,F]2 | %20
 [C,,C,]2 !>![C,E,G,C]2 [C,=E,G,C]2 | [F,,F,]2 !>![C,F,A,C]2 [D,^F,=A,D]2 | %22
 [G,,G,]2 !>![D,G,=B,D]2 [G,,,G,,]2 | [C,C]2 !>![C,,C,]2 z2 | .[B,,,B,,]2 .[C,,C,]2 .[D,,D,]2 | %25
 .[E,,E,]2 .[F,,F,]2 .[G,,G,]2 | .[A,,A,]2 .[B,,B,]2 .[C,C]2 | .[D,D]2 .[E,E]2 .[F,F]2 | %28
 [C,,C,]2 !>![C,E,G,C]2 [C,=E,G,C]2 | [F,,F,]2 !>![C,F,A,C]2 [D,^F,=A,D]2 | %30
 [G,,G,]2 !>![D,G,=B,D]2 [G,,,G,,]2 | [C,C]2 !>![C,,C,]2 z2 |: %32
[K:C]!ped! [C,,C,]2 [E,G,C]2 [E,G,C]2!ped-up! |!ped! [C,C]2 [G,CE]2 [G,CE]2!ped-up! | %34
!ped! [G,,G,]2 [G,B,F]2 [G,B,F]2!ped-up! |!ped! [G,,G,]2 [G,B,F]2 [G,B,F]2!ped-up! | %36
!ped! [C,,C,]2 [E,G,C]2 [E,G,C]2!ped-up! |!ped! [C,C]2 [G,CE]2 [G,CE]2!ped-up! | %38
!ped! [G,,G,]2 [G,B,F]2 [G,B,F]2!ped-up! |!ped! [G,B,F]2 [G,CE]4!ped-up! | z6 | z6 :| %42
 F,,2 G,,2 _A,,2 | G,,2 [F,,F,]2 [_E,,_E,]2 | [D,,D,]2 [_E,,_E,]2 [F,,F,]2 | [^F,,^F,]4 [G,,G,]2 | %46
!ped! G,2 E,2 C,2!ped-up! |!ped! G,,6!ped-up! |!ped! B,2 A,2 B,2!ped-up! | %49
!ped! C2 G,2 E,2!ped-up! | z6 | z6 | F,,2 G,,2 _A,,2 | G,,2 [F,,F,]2 [_E,,_E,]2 | %54
 [D,,D,]2 [_E,,_E,]2 [F,,F,]2 | [^F,,^F,]4 [G,,G,]2 |!ped! G,2 E,2 C,2!ped-up! | %57
!ped! G,,6!ped-up! |!ped! B,2 A,2 B,2!ped-up! |!ped! C2 G,2 E,2!ped-up! | z6 | z6 |] %62
V:3
 x6 | F,,6 | ^F,,6 | x6 | x6 | x6 | x6 | x6 | x6 | F,,6 | ^F,,6 | x6 | x6 | x6 | x6 | x6 | x6 | %17
 x6 | x6 | x6 | x6 | x6 | x6 | x6 | x6 | x6 | x6 | x6 | x6 | x6 | x6 | x6 |:[K:C] x6 | x6 | x6 | %35
 x6 | x6 | x6 | x6 | x6 | x6 | x6 :| x6 | x6 | x6 | x6 | x6 | x6 | [G,,D,]6 | C,6 | x6 | x6 | x6 | %53
 x6 | x6 | x6 | x6 | x6 | [G,,D,]6 | C,6 | x6 | x6 |] %62
V:4
 x6 | x6 | =A,6 | [F,=B,]6 |[K:treble] c4 c2 | c4 c2 | [Bd]4 [=Ac]2 | [GB]2 x4 | x6 | x6 | =A,6 | %11
 [F,=B,]6 |[K:treble] c4 c2 | c4 c2 | [Bd]4 [=Ac]2 | [GB]2 x4 | x6 | x6 | x6 | x6 | %20
 x2 [eg]2 [=eg]2 | z2 [fa]2 [^f=a]2 | z2 [dg]2 [df]2 | [eg]2 x4 | x6 | x6 | x6 | x6 | %28
 x2 [eg]2 [=eg]2 | z2 [fa]2 [^f=a]2 | z2 [dg]2 [df]2 | [eg]2 x4 |:[K:C] x6 | x6 | x6 | x6 | x6 | %37
 x6 | x6 | x6 | x6 | x6 :| [B,D]6 |[I:staff +1] G,2 B,2 _A,2 | G,2 _A,2 B,2 | _A,2 =A,2 B,2 | %46
[I:staff -1] [ce]6 | c'2 b2 c'2 | d'6 | x6 | x6 | x6 | [B,D]6 |[I:staff +1] G,2 B,2 _A,2 | %54
 G,2 _A,2 B,2 | _A,2 =A,2 B,2 |[I:staff -1] [ce]6 | c'2 b2 c'2 | d'6 | x6 | x6 | x6 |] %62

